X: 28
T:Manchester Hornpipe. FK.28
M:C
L:1/8
Q:160
C:"MS 40 p.41"
S:Kidson's H'pipe MS,early 20thC.
R:Hornpipe
O:England
A:Leeds
N:
Z:vmp.John Bagnall
K:F
AB | c2 c2 cfdB | AfdB A2 cB | Acde f2 ga | bagf fedc |!
 c2 cB cfdB | AfdB A2 cB | Afef dBGE | F2 F2 F2 :|:!
cd | g2 g2 gfga | bgaf d2 ga | bgaf gefd | cfdB A2 FA |!
 c2 cB cfdB | AfdB A2 cB | Afef dBGE | F2 F2 "*" F2 :|]
%Repeat of B part not marked in MS
